_includes/icons/ios-work-address.svg

<svg fill="#666" height="50" viewBox="0 0 50 50" width="50" xmlns="http://www.w3.org/2000/svg"><path d="m25 2c-2.472656 0-4.683594.730469-6.3125 1.96875-1.355469 1.027344-2.308594 2.433594-2.59375 4.03125h-13.09375c-1.644531 0-3 1.355469-3 3v16.8125c-.0078125.0625-.0078125.125 0 .1875v17c0 1.644531 1.355469 3 3 3h44c1.644531 0 3-1.355469 3-3v-17.09375c0-.03125 0-.0625 0-.09375v-16.8125c0-1.644531-1.355469-3-3-3h-13.09375c-.285156-1.597656-1.238281-3.003906-2.59375-4.03125-1.628906-1.238281-3.839844-1.96875-6.3125-1.96875zm0 2c2.082031 0 3.863281.628906 5.09375 1.5625.914063.695313 1.527344 1.515625 1.78125 2.4375h-13.75c.253906-.921875.867188-1.742187 1.78125-2.4375 1.230469-.933594 3.011719-1.5625 5.09375-1.5625zm-22 6h44c.566406 0 1 .433594 1 1v16.8125c-.003906.042969-.003906.082031 0 .125v.0625c0 .566406-.433594 1-1 1h-17c0-1.644531-1.355469-3-3-3h-4c-1.644531 0-3 1.355469-3 3h-17c-.566406 0-1-.433594-1-1 .007813-.0625.007813-.125 0-.1875v-16.8125c0-.566406.433594-1 1-1zm20 18h4c.566406 0 1 .433594 1 1v.8125.09375.09375c-.007812.074219-.007812.144531 0 .21875v.78125c0 .566406-.433594 1-1 1h-4c-.566406 0-1-.433594-1-1v-.8125c.027344-.132812.027344-.273437 0-.40625v-.78125c0-.566406.433594-1 1-1zm-21 2.8125c.316406.113281.648438.1875 1 .1875h17c0 1.644531 1.355469 3 3 3h4c1.644531 0 3-1.355469 3-3h17c.351563 0 .683594-.074219 1-.1875v14.1875c0 .566406-.433594 1-1 1h-44c-.566406 0-1-.433594-1-1z"/></svg>

<svg xmlns="http://www.w3.org/2000/svg" viewBox="0 0 50 50" width="50" height="50" fill="#666"><path d="M 25 2 C 22.527344 2 20.316406 2.730469 18.6875 3.96875 C 17.332031 4.996094 16.378906 6.402344 16.09375 8 L 3 8 C 1.355469 8 0 9.355469 0 11 L 0 27.8125 C -0.0078125 27.875 -0.0078125 27.9375 0 28 L 0 45 C 0 46.644531 1.355469 48 3 48 L 47 48 C 48.644531 48 50 46.644531 50 45 L 50 27.90625 C 50 27.875 50 27.84375 50 27.8125 L 50 11 C 50 9.355469 48.644531 8 47 8 L 33.90625 8 C 33.621094 6.402344 32.667969 4.996094 31.3125 3.96875 C 29.683594 2.730469 27.472656 2 25 2 Z M 25 4 C 27.082031 4 28.863281 4.628906 30.09375 5.5625 C 31.007813 6.257813 31.621094 7.078125 31.875 8 L 18.125 8 C 18.378906 7.078125 18.992188 6.257813 19.90625 5.5625 C 21.136719 4.628906 22.917969 4 25 4 Z M 3 10 L 47 10 C 47.566406 10 48 10.433594 48 11 L 48 27.8125 C 47.996094 27.855469 47.996094 27.894531 48 27.9375 L 48 28 C 48 28.566406 47.566406 29 47 29 L 30 29 C 30 27.355469 28.644531 26 27 26 L 23 26 C 21.355469 26 20 27.355469 20 29 L 3 29 C 2.433594 29 2 28.566406 2 28 C 2.007813 27.9375 2.007813 27.875 2 27.8125 L 2 11 C 2 10.433594 2.433594 10 3 10 Z M 23 28 L 27 28 C 27.566406 28 28 28.433594 28 29 L 28 29.8125 C 28 29.84375 28 29.875 28 29.90625 L 28 30 C 27.992188 30.074219 27.992188 30.144531 28 30.21875 L 28 31 C 28 31.566406 27.566406 32 27 32 L 23 32 C 22.433594 32 22 31.566406 22 31 L 22 30.1875 C 22.027344 30.054688 22.027344 29.914063 22 29.78125 L 22 29 C 22 28.433594 22.433594 28 23 28 Z M 2 30.8125 C 2.316406 30.925781 2.648438 31 3 31 L 20 31 C 20 32.644531 21.355469 34 23 34 L 27 34 C 28.644531 34 30 32.644531 30 31 L 47 31 C 47.351563 31 47.683594 30.925781 48 30.8125 L 48 45 C 48 45.566406 47.566406 46 47 46 L 3 46 C 2.433594 46 2 45.566406 2 45 Z"/></svg>
